X:1
T:Jefferson City, 11.11.11.11 D
T:Jefferson City, 11.11.11.11 D
T:Charles Hutchinson Gabriel, 1908
T:Public Domain Courtesy of the Cyber Hymnal™
C:Charles Hutchinson Gabriel, 1908
Z:Public Domain
Z:Courtesy of the Cyber Hymnal™
%%score ( 1 2 ) ( 3 4 )
L:1/8
Q:1/4=115
M:6/8
K:D
V:1 treble 
V:2 treble 
V:3 bass 
V:4 bass 
V:1
 [FA]2 [FA] [FA]2 [FA] | [Fd]3 [Fd]3 | [DF]2 [DE] D2 [DF] | [FA]3- [FA]2 z | %4
 [Gc]2 [Gc] [Gc]2 [Gc] | [Gc]3 [EG]3 | [Gc]2 [GB] [FA]2 [EG] | [DF]3- [DF]2 z | %8
 [FA]2 [FA] [FA]2 [FA] | [Fd]3 A3 | [GB]2 [GB] [GB]2 [GB] | ([^Ge]3 !fermata![Ed]2) z | %12
 [Ec]2 [Ec] [Ec]2 [Ec] | [Dd]2 [Dd] [DA]2 [DG] | [DF]3 [CE]3 | D3- D2 z | [CE]2 [GB] [GB]2 [Gc] | %17
 [GB]3 [CE]3 | D2 [FA] [FA]2 [FB] | [FA]3- [FA]2 z | [E^G]2 [Ed] [Gd]2 [Ge] | [^Gd]3 [EG]3 | %22
 [EA]2 [EA] [EA]2 [EB] | ([Ec-]3 [Gc]2) z | [Fd]2 [Fd] [Fd]2 [Ge] | [Fd]3 A3 | %26
 [GB]2 [GB] [GB]2 [GB] | ([^Ge]3 !fermata![Ed]2) z | [Ec]2 [Ec] [Ec]2 [Ec] | %29
 [Dd]2 [Dd] [DA]2 [DG] | [DF]3 [CE]3 | D3- D2 z |] %32
V:2
 x6 | x6 | x3 D2 x | x6 | x6 | x6 | x6 | x6 | x6 | x3 A3 | x6 | x6 | x6 | x6 | x6 | D3- D2 x | x6 | %17
 x6 | D2 x4 | x6 | x6 | x6 | x6 | x6 | x6 | x3 A3 | x6 | x6 | x6 | x6 | x6 | D3- D2 x |] %32
V:3
 [D,D]2 [D,D] [D,D]2 [D,D] | [D,A,]3 [D,A,]3 | [D,A,]2 [D,G,] [D,F,]2 [D,A,] | [D,D]3- [D,D]2 z | %4
 [A,,E]2 [A,,E] [A,,E]2 [A,,E] | [A,,E]3 [A,,C]3 | [A,,E]2 [A,,C] [A,,D]2 [A,,A,] | %7
 [D,A,]3- [D,A,]2 z | [D,D]2 [D,D] [D,D]2 [D,D] | [D,A,]3 [F,D]3 | [G,D]2 [G,D] [G,D]2 [G,D] | %11
 ([E,D]3 !fermata![^G,B,]2) z | A,2 A, [G,A,]2 [G,A,] | [F,A,]2 [F,A,] [G,B,]2 [G,B,] | %14
 A,3 [A,,G,]3 | [D,F,]3- [D,F,]2 z | [A,,A,]2 [A,,C] [A,,C]2 [A,,C] | [A,,C]3 [A,,G,]3 | %18
 [D,F,]2 [D,D] [D,D]2 [D,D] | [D,D]3- [D,D]2 z | [E,D]2 [E,B,] [E,B,]2 [E,B,] | [E,B,]3 [E,D]3 | %22
 [A,C]2 [A,,C] [C,A,]2 [E,^G,] | A,3- A,2 z | [D,A,]2 [D,A,] [D,A,]2 [D,A,] | [D,A,]3 [F,D]3 | %26
 [G,D]2 [G,D] [G,D]2 [G,D] | ([E,D]3 !fermata![^G,B,]2) z | A,2 A, [G,A,]2 [G,A,] | %29
 [F,A,]2 [F,A,] [G,B,]2 [G,B,] | A,3 [A,,G,]3 | [D,F,]3- [D,F,]2 z |] %32
V:4
 x6 | x6 | x6 | x6 | x6 | x6 | x6 | x6 | x6 | x6 | x6 | x6 | A,2 A, x3 | x6 | A,3 x3 | x6 | x6 | %17
 x6 | x6 | x6 | x6 | x6 | x6 | A,3- A,2 x | x6 | x6 | x6 | x6 | A,2 A, x3 | x6 | A,3 x3 | x6 |] %32

